X: 41
T: The Happy Fifer
P: piffero primo 10521
O: Roy Watrous
%R: reel
F: http://ancients.sudburymuster.org/mus/sng/pdf/happyfiferC0.pdf
Z: 2020 John Chambers <jc:trillian.mit.edu>
M: 2/4
L: 1/16
K: D
FG |\
A2fe d2cB | Aagf e2fg | azAg zfez | defd AGFG |\
A2fe d2cB |
Aagf e2fg | abaf gecA | d4 z2 :: ef |\
gAfA eAfA | gAfA e2fg |
azAg zfez | defd AGFA |\
A2fe d2cB | Aagf e2fg | abaf gecA | d4 z2 :|


